X:1
T:Joy to the World
C:Lowell Mason / G. F. Handel
M:4/4
L:1/4
Q:1/4=100
K:D
D | D C# B A | B C# D2 | E F# G A | B4 | A | A G F# E | F# G A2 | B C# D E | F# G A B | c4 |]
w: Joy to the world | The Lord is come | Let earth re-ceive her King | Let ev-ery heart pre-pare him room | And heav-en and na-ture sing | And heav-en and na-ture sing | And heav-en and heav-en and na-ture sing |
